X: 26346
T: Mermaid Of Mullaghmore, The
R: reel
M: 4/4
K: Dmajor
FEDF AdAG|FdAF GFED|FAAF D2ge|fdec dABG|
FEDF AdAG|FdAF GFED|FAAF D2eg|1 fdec d3A:|2 fdec defg||
|:a2fa dafa|g2e=c Gceg|faaf Adfa|gbag fddg|
faaf dafa|g2e=c Gceg|fage fdec|dABG FDD2:|

